ui/StatusQ/src/assets/img/icons/remotely-destruct.svg

<svg fill="none" height="24" viewBox="0 0 25 24" width="25" xmlns="http://www.w3.org/2000/svg"><path d="m14.2903 6.93202-1.7109-5.66893c-.027-.08939-.1509-.09632-.1877-.0105l-2.1466 5.00878c-.0238.0557-.0914.07753-.1433.04636l-3.50333-2.10198c-.07961-.04777-.17568.02929-.14632.11737l1.40398 4.21192c.02158.06476-.02662.13163-.09487.13163h-6.41375c-.10038 0-.13818.13135-.05316.1847l5.82273 3.65373c.05503.0345.06304.1115.01628.1567l-4.384 4.2298c-.06918.0667-.01354.1831.08183.1712l5.7079-.7135c.06471-.0081.11972.0469.11163.1116l-.71021 5.6817c-.01223.0978.10958.1524.17451.0782l4.38188-5.0106c.0358-.041.0978-.0458.1395-.0109l4.2952 3.5931c.0658.0551.1658.0072.1641-.0786l-.0851-4.3575c-.0013-.0664.0613-.1156.1255-.0987l5.7362 1.5138c.099.0261.1686-.0956.096-.1677l-4.9823-4.9428c-.0455-.0451-.0375-.1207.0165-.1552l5.7097-3.65481c.0841-.05386.046-.18422-.0539-.18422h-5.6368c-.0638 0-.1113-.05894-.0978-.12128l1.4002-6.42906c.0215-.09886-.1006-.16351-.1703-.09012l-4.6951 4.94577c-.0528.05565-.1461.03351-.1682-.03996z" stroke="#ff2d55" stroke-width="1.5"/></svg>

<svg width="25" height="24" viewBox="0 0 25 24" fill="none" xmlns="http://www.w3.org/2000/svg">
<path d="M14.2903 6.93202L12.5794 1.26309C12.5524 1.1737 12.4285 1.16677 12.3917 1.25259L10.2451 6.26137C10.2213 6.31707 10.1537 6.3389 10.1018 6.30773L6.59847 4.20575C6.51886 4.15798 6.42279 4.23504 6.45215 4.32312L7.85613 8.53504C7.87771 8.5998 7.82951 8.66667 7.76126 8.66667H1.34751C1.24713 8.66667 1.20933 8.79802 1.29435 8.85137L7.11708 12.5051C7.17211 12.5396 7.18012 12.6166 7.13336 12.6618L2.74936 16.8916C2.68018 16.9583 2.73582 17.0747 2.83119 17.0628L8.53909 16.3493C8.6038 16.3412 8.65881 16.3962 8.65072 16.4609L7.94051 22.1426C7.92828 22.2404 8.05009 22.295 8.11502 22.2208L12.4969 17.2102C12.5327 17.1692 12.5947 17.1644 12.6364 17.1993L16.9316 20.7924C16.9974 20.8475 17.0974 20.7996 17.0957 20.7138L17.0106 16.3563C17.0093 16.2899 17.0719 16.2407 17.1361 16.2576L22.8723 17.7714C22.9713 17.7975 23.0409 17.6758 22.9683 17.6037L17.986 12.6609C17.9405 12.6158 17.9485 12.5402 18.0025 12.5057L23.7122 8.85089C23.7963 8.79703 23.7582 8.66667 23.6583 8.66667H18.0215C17.9577 8.66667 17.9102 8.60773 17.9237 8.54539L19.3239 2.11633C19.3454 2.01747 19.2233 1.95282 19.1536 2.02621L14.4585 6.97198C14.4057 7.02763 14.3124 7.00549 14.2903 6.93202Z" stroke="#FF2D55" stroke-width="1.5"/>
</svg>
